imgs/logos/icons8-html.svg

<svg xmlns="http://www.w3.org/2000/svg" xmlns:xlink="http://www.w3.org/1999/xlink" viewBox="0,0,256,256" width="50px" height="50px"><g fill="#3ebdc3" fill-rule="nonzero" stroke="none" stroke-width="1" stroke-linecap="butt" stroke-linejoin="miter" stroke-miterlimit="10" stroke-dasharray="" stroke-dashoffset="0" font-family="none" font-weight="none" font-size="none" text-anchor="none" style="mix-blend-mode: normal"><g transform="scale(5.12,5.12)"><path d="M45.27344,2.32422c-0.1875,-0.20703 -0.45703,-0.32422 -0.73828,-0.32422h-39.07031c-0.28125,0 -0.55078,0.11719 -0.73828,0.32422c-0.19141,0.20703 -0.28516,0.48438 -0.25781,0.76563l3.51953,39.42578c0.03516,0.41406 0.32422,0.75781 0.72266,0.875l16.01172,4.57031c0.08594,0.02734 0.17969,0.03906 0.27344,0.03906c0.09375,0 0.18359,-0.01172 0.27344,-0.03906l16.02344,-4.57031c0.39844,-0.11719 0.68359,-0.46094 0.72266,-0.875l3.51563,-39.42578c0.02734,-0.28125 -0.06641,-0.55859 -0.25781,-0.76562zM36.84766,15.91797h-18.8125l0.44922,5.08984h17.91016l-1.34375,15.04297l-10.05859,3.03906l-0.09766,-0.03125l-9.94141,-3.01172l-0.54297,-6.12891h4.87109l0.21094,2.37891l5.55859,1.16406l5.45703,-1.16406l0.58203,-6.4375h-17.04297l-1.32422,-14.80469h24.55859z"></path></g></g></svg>

<?xml version="1.0" encoding="UTF-8" standalone="no"?>
<svg
   viewBox="0 0 256 256"
   width="50"
   height="50"
   version="1.1"
   id="svg2"
   sodipodi:docname="icons8-html.svg"
   inkscape:version="1.3 (0e150ed, 2023-07-21)"
   xmlns:inkscape="http://www.inkscape.org/namespaces/inkscape"
   xmlns:sodipodi="http://sodipodi.sourceforge.net/DTD/sodipodi-0.dtd"
   xmlns="http://www.w3.org/2000/svg"
   xmlns:svg="http://www.w3.org/2000/svg">
  <defs
     id="defs2" />
  <sodipodi:namedview
     id="namedview2"
     pagecolor="#505050"
     bordercolor="#eeeeee"
     borderopacity="1"
     inkscape:showpageshadow="0"
     inkscape:pageopacity="0"
     inkscape:pagecheckerboard="0"
     inkscape:deskcolor="#505050"
     inkscape:zoom="8.24"
     inkscape:cx="20.509709"
     inkscape:cy="22.997573"
     inkscape:window-width="1366"
     inkscape:window-height="699"
     inkscape:window-x="0"
     inkscape:window-y="32"
     inkscape:window-maximized="1"
     inkscape:current-layer="svg2" />
  <g
     fill="#3ebdc3"
     fill-rule="nonzero"
     stroke="none"
     stroke-width="1"
     stroke-linecap="butt"
     stroke-linejoin="miter"
     stroke-miterlimit="10"
     stroke-dasharray="none"
     stroke-dashoffset="0"
     font-family="none"
     font-weight="none"
     font-size="none"
     text-anchor="none"
     style="mix-blend-mode:normal"
     id="g2"
     transform="matrix(1.0869565,0,0,1.0869565,-11.130535,-11.130432)">
    <g
       transform="scale(5.12)"
       id="g1">
      <path
         d="M 45.27344,2.32422 C 45.08594,2.11719 44.81641,2 44.53516,2 H 5.46485 C 5.1836,2 4.91407,2.11719 4.72657,2.32422 4.53516,2.53125 4.44141,2.8086 4.46876,3.08985 l 3.51953,39.42578 c 0.03516,0.41406 0.32422,0.75781 0.72266,0.875 l 16.01172,4.57031 C 24.80861,47.98828 24.90236,48 24.99611,48 c 0.09375,0 0.18359,-0.01172 0.27344,-0.03906 l 16.02344,-4.57031 c 0.39844,-0.11719 0.68359,-0.46094 0.72266,-0.875 L 45.53128,3.08985 C 45.55862,2.8086 45.46487,2.53126 45.27347,2.32423 Z m -8.42578,13.59375 h -18.8125 l 0.44922,5.08984 H 36.39454 L 35.05079,36.05078 24.9922,39.08984 24.89454,39.05859 14.95313,36.04687 14.41016,29.91796 h 4.87109 l 0.21094,2.37891 5.55859,1.16406 5.45703,-1.16406 0.58203,-6.4375 H 14.04687 L 12.72265,11.05468 h 24.55859 z"
         id="path1" />
    </g>
  </g>
</svg>
